Hatter-kde/actions/16/office-chart-line-forecast.svg

<svg version="1.1" viewBox="0 0 16 16" xmlns="http://www.w3.org/2000/svg">
    <defs>
        <style id="current-color-scheme" type="text/css">.ColorScheme-Text {
        color:#363636;
      }</style>
    </defs>
    <path d="M 13.5,1.79296875 11.79296875,3.5 12.5,4.20703125 14.20703125,2.5 Z M 2,2 V 14 H 14 V 13 H 3 v -2 h 2.70703125 l 2.5,-2.5 L 7.5,7.79296875 5.29296875,10 H 3 V 2 Z M 10.5,4.79296875 8.79296875,6.5 9.5,7.20703125 11.20703125,5.5 Z" class="ColorScheme-Text" fill="currentColor"/>
</svg>

<?xml version="1.0" encoding="UTF-8"?>
<svg version="1.1" viewBox="0 0 16 16" xmlns="http://www.w3.org/2000/svg">
 <defs>
  <style id="current-color-scheme" type="text/css">.ColorScheme-Text {
        color:#363636;
      }</style>
 </defs>
 <path class="ColorScheme-Text" d="m13.5 1.793-1.707 1.707 0.70703 0.70703 1.707-1.707zm-11.5 0.20703v12h12v-1h-11v-2h2.707l2.5-2.5-0.70703-0.70703-2.207 2.207h-2.293v-8zm8.5 2.793-1.707 1.707 0.70703 0.70703 1.707-1.707z" fill="currentColor"/>
</svg>
